SVG_Azure_All/Cognitive Services Data Collection Rule.svg

<?xml version="1.0" encoding="UTF-8" standalone="no"?>
<!-- Generated by Microsoft Visio, SVG Export Cognitive Services Data Collection Rule.svg Page-1 -->

<svg
   xmlns:dc="http://purl.org/dc/elements/1.1/"
   xmlns:cc="http://creativecommons.org/ns#"
   xmlns:rdf="http://www.w3.org/1999/02/22-rdf-syntax-ns#"
   xmlns:svg="http://www.w3.org/2000/svg"
   xmlns="http://www.w3.org/2000/svg"
   xmlns:sodipodi="http://sodipodi.sourceforge.net/DTD/sodipodi-0.dtd"
   xmlns:inkscape="http://www.inkscape.org/namespaces/inkscape"
   width="0.78737962in"
   height="0.78736174in"
   viewBox="0 0 56.691298 56.689991"
   xml:space="preserve"
   class="st6"
   version="1.1"
   id="svg50"
   sodipodi:docname="Cognitive Services Data Collection Rule.svg"
   style="font-size:12px;overflow:visible;color-interpolation-filters:sRGB;fill:none;fill-rule:evenodd;stroke-linecap:square;stroke-miterlimit:3"
   inkscape:version="0.92.5 (2060ec1f9f, 2020-04-08)"><metadata
   id="metadata54"><rdf:RDF><cc:Work
       rdf:about=""><dc:format>image/svg+xml</dc:format><dc:type
         rdf:resource="http://purl.org/dc/dcmitype/StillImage" /></cc:Work></rdf:RDF></metadata><sodipodi:namedview
   pagecolor="#ffffff"
   bordercolor="#666666"
   borderopacity="1"
   objecttolerance="10"
   gridtolerance="10"
   guidetolerance="10"
   inkscape:pageopacity="0"
   inkscape:pageshadow="2"
   inkscape:window-width="640"
   inkscape:window-height="480"
   id="namedview52"
   showgrid="false"
   inkscape:zoom="1.4307526"
   inkscape:cx="37.795216"
   inkscape:cy="37.118415"
   inkscape:window-x="0"
   inkscape:window-y="0"
   inkscape:window-maximized="0"
   inkscape:current-layer="svg50" />
	<style
   type="text/css"
   id="style2">
	<![CDATA[
		.st1 {fill:url(#grad0-6);stroke:none;stroke-linecap:butt;stroke-width:33.0026}
		.st2 {fill:url(#grad0-10);stroke:none;stroke-linecap:butt;stroke-width:33.0026}
		.st3 {fill:#ffffff;stroke:none;stroke-linecap:butt;stroke-width:33.0026}
		.st4 {fill:#ffffff;fill-opacity:0.8;stroke:none;stroke-linecap:butt;stroke-width:33.0026}
		.st5 {fill:#83b9f9;stroke:none;stroke-linecap:butt;stroke-width:33.0026}
		.st6 {fill:none;fill-rule:evenodd;font-size:12px;overflow:visible;stroke-linecap:square;stroke-miterlimit:3}
	]]>
	</style>

	<defs
   id="Patterns_And_Gradients">
		<linearGradient
   id="grad0-6"
   x1="-1.0680753e-08"
   y1="61.205427"
   x2="51.771645"
   y2="61.205427"
   gradientTransform="scale(0.91324122,1.0950009)"
   gradientUnits="userSpaceOnUse">
			<stop
   offset="0"
   stop-color="#0078d4"
   stop-opacity="1"
   id="stop4" />
			<stop
   offset="1"
   stop-color="#5ea0ef"
   stop-opacity="1"
   id="stop6" />
		</linearGradient>
		<linearGradient
   id="grad0-10"
   x1="0"
   y1="141.01615"
   x2="32.136285"
   y2="141.01615"
   gradientTransform="scale(1.399664,0.7144572)"
   gradientUnits="userSpaceOnUse">
			<stop
   offset="0"
   stop-color="#50e6ff"
   stop-opacity="1"
   id="stop9" />
			<stop
   offset="1"
   stop-color="#32bedd"
   stop-opacity="1"
   id="stop11" />
		</linearGradient>
	</defs>
	<g
   id="g48"
   transform="translate(-33.0026,-33.0043)">
		<title
   id="title15">Page-1</title>
		<g
   id="group6525-1"
   transform="translate(33.0026,-34.0157)">
			<title
   id="title17">Cognitive Services Data Collection Rule</title>
			<g
   id="group6526-2">
				<title
   id="title19">g12</title>
				<g
   id="shape6527-3"
   transform="translate(9.41129)">
					<title
   id="title21">rect2</title>
					<path
   d="m 0,121.82 a 1.92991,1.88981 -180 0 0 1.93,1.89 h 43.42 a 1.92991,1.88981 -180 0 0 1.93,-1.89 V 68.91 A 1.92991,1.88981 -180 0 0 45.35,67.02 H 1.93 A 1.92991,1.88981 -180 0 0 0,68.91 Z"
   class="st1"
   id="path23"
   inkscape:connector-curvature="0"
   style="fill:url(#grad0-6);stroke:none;stroke-width:33.00260162;stroke-linecap:butt" />
				</g>
				<g
   id="shape6528-7"
   transform="translate(0,-27.8488)">
					<title
   id="title26">rect4</title>
					<path
   d="m 0,122.01 a 1.74013,1.70398 -180 0 0 1.74,1.7 h 41.5 a 1.74013,1.70398 -180 0 0 1.74,-1.7 v -19.56 a 1.74013,1.70398 -180 0 0 -1.74,-1.7 H 1.74 A 1.74013,1.70398 -180 0 0 0,102.45 Z"
   class="st2"
   id="path28"
   inkscape:connector-curvature="0"
   style="fill:url(#grad0-10);stroke:none;stroke-width:33.00260162;stroke-linecap:butt" />
				</g>
				<g
   id="shape6529-11"
   transform="translate(6.90891,-41.1811)">
					<title
   id="title31">path6</title>
					<path
   d="M 30.72,122.13 H 8.79 A 0.392405,0.384252 0 0 1 8.391162,121.75205 L 8.39,120.48 a 0.395622,0.387402 0 0 1 0.395622,-0.3874 L 30.72,120.1 a 0.398838,0.390551 0 0 1 0.398838,0.3874 L 31.12,121.74 a 0.392405,0.384252 0 0 1 -0.392405,0.3874 z m -25.41,0.92 v -3.86 A 0.681885,0.667717 -180 0 0 4.628115,118.52228 L 0.68,118.52 a 0.681885,0.667717 -180 0 0 -0.681885,0.66457 L 0,123.05 a 0.678668,0.664567 -180 0 0 0.678668,0.66457 L 4.63,123.71 a 0.678668,0.664567 -180 0 0 0.681885,-0.66457 z"
   class="st3"
   id="path33"
   inkscape:connector-curvature="0"
   style="fill:#ffffff;stroke:none;stroke-width:33.00260162;stroke-linecap:butt" />
				</g>
				<g
   id="shape6530-13"
   transform="translate(6.91534,-32.9669)">
					<title
   id="title36">path8</title>
					<path
   d="M 30.71,122.1 H 8.79 A 0.398838,0.390551 0 0 1 8.391162,121.7126 L 8.39,120.44 a 0.398838,0.390551 0 0 1 0.398838,-0.39055 L 30.71,120.05 a 0.402055,0.393701 0 0 1 0.398838,0.39055 L 31.11,121.7 a 0.402055,0.393701 0 0 1 -0.395622,0.3937 z M 4.32,119.49 H 1.03 v 3.22 h 3.29 z m 0.34,-1.01 a 0.69475,0.680315 0 0 1 0.685101,0.67402 L 5.35,123.04 a 0.688317,0.674016 0 0 1 -0.688317,0.67087 L 0.69,123.71 A 0.685101,0.670866 0 0 1 0.004899,123.03913 L 0,119.14 a 0.685101,0.670866 0 0 1 0.685101,-0.67087 z"
   class="st4"
   id="path38"
   inkscape:connector-curvature="0"
   style="fill:#ffffff;fill-opacity:0.8;stroke:none;stroke-width:33.00260162;stroke-linecap:butt" />
				</g>
				<g
   id="shape6531-15"
   transform="translate(9.41129,-6.47262)">
					<title
   id="title41">path10</title>
					<path
   d="m 33.03,108.48 a 0.389189,0.381102 -180 0 0 -0.270181,-0.11024 0.37954,0.371654 -180 0 0 -0.376323,0.37481 L 32.38,113.42 H 0 v 5.59 h 32.38 v 4.36 a 0.37954,0.371654 -180 0 0 0.643287,0.26457 L 40.5,116.33 a 0.376323,0.368504 -180 0 0 0,-0.52284 z"
   class="st5"
   id="path43"
   inkscape:connector-curvature="0"
   style="fill:#83b9f9;stroke:none;stroke-width:33.00260162;stroke-linecap:butt" />
				</g>
			</g>
		</g>
	</g>
</svg>

<?xml version="1.0" encoding="UTF-8" standalone="no"?>
<!DOCTYPE svg PUBLIC "-//W3C//DTD SVG 1.1//EN" "http://www.w3.org/Graphics/SVG/1.1/DTD/svg11.dtd">
<!-- Generated by Microsoft Visio, SVG Export Cognitive Services Data Collection Rule.svg Page-1 -->
<svg xmlns="http://www.w3.org/2000/svg" xmlns:xlink="http://www.w3.org/1999/xlink" xmlns:ev="http://www.w3.org/2001/xml-events"
		width="1.70414in" height="1.71821in" viewBox="0 0 122.698 123.711" xml:space="preserve" color-interpolation-filters="sRGB"
		class="st6">
	<style type="text/css">
	<![CDATA[
		.st1 {fill:url(#grad0-6);stroke:none;stroke-linecap:butt;stroke-width:33.0026}
		.st2 {fill:url(#grad0-10);stroke:none;stroke-linecap:butt;stroke-width:33.0026}
		.st3 {fill:#ffffff;stroke:none;stroke-linecap:butt;stroke-width:33.0026}
		.st4 {fill:#ffffff;fill-opacity:0.8;stroke:none;stroke-linecap:butt;stroke-width:33.0026}
		.st5 {fill:#83b9f9;stroke:none;stroke-linecap:butt;stroke-width:33.0026}
		.st6 {fill:none;fill-rule:evenodd;font-size:12px;overflow:visible;stroke-linecap:square;stroke-miterlimit:3}
	]]>
	</style>

	<defs id="Patterns_And_Gradients">
		<linearGradient id="grad0-6" x1="0" y1="0" x2="1" y2="0" gradientTransform="rotate(-90 0.5 0.5)">
			<stop offset="0" stop-color="#0078d4" stop-opacity="1"/>
			<stop offset="1" stop-color="#5ea0ef" stop-opacity="1"/>
		</linearGradient>
		<linearGradient id="grad0-10" x1="0" y1="0" x2="1" y2="0" gradientTransform="rotate(90 0.5 0.5)">
			<stop offset="0" stop-color="#50e6ff" stop-opacity="1"/>
			<stop offset="1" stop-color="#32bedd" stop-opacity="1"/>
		</linearGradient>
	</defs>
	<g>
		<title>Page-1</title>
		<g id="group6357-1" transform="translate(33.0026,-34.0157)">
			<title>Cognitive Services Data Collection Rule</title>
			<g id="group6358-2">
				<title>g12</title>
				<g id="shape6359-3" transform="translate(9.41129,0)">
					<title>rect2</title>
					<path d="M0 121.82 A1.92991 1.88981 -180 0 0 1.93 123.71 L45.35 123.71 A1.92991 1.88981 -180 0 0 47.28 121.82
								 L47.28 68.91 A1.92991 1.88981 -180 0 0 45.35 67.02 L1.93 67.02 A1.92991 1.88981 -180 0 0 0 68.91
								 L0 121.82 Z" class="st1"/>
				</g>
				<g id="shape6360-7" transform="translate(-2.8777E-13,-27.8488)">
					<title>rect4</title>
					<path d="M-0 122.01 A1.74013 1.70398 -180 0 0 1.74 123.71 L43.24 123.71 A1.74013 1.70398 -180 0 0 44.98 122.01
								 L44.98 102.45 A1.74013 1.70398 -180 0 0 43.24 100.75 L1.74 100.75 A1.74013 1.70398 -180 0 0 -0 102.45
								 L0 122.01 Z" class="st2"/>
				</g>
				<g id="shape6361-11" transform="translate(6.90891,-41.1811)">
					<title>path6</title>
					<path d="M30.72 122.13 L8.79 122.13 a0.392405 0.384252 0 0 1 -0.398838 -0.377953 L8.39 120.48 a0.395622 0.387402
								 0 0 1 0.395622 -0.387402 L30.72 120.1 a0.398838 0.390551 0 0 1 0.398838 0.387402 L31.12 121.74 a0.392405
								 0.384252 0 0 1 -0.392405 0.387402 L30.72 122.13 ZM5.31 123.05 L5.31 119.19 a0.681885 0.667717 -180
								 0 0 -0.681885 -0.667717 L0.68 118.52 a0.681885 0.667717 -180 0 0 -0.681885 0.664567 L0 123.05 a0.678668
								 0.664567 -180 0 0 0.678668 0.664567 L4.63 123.71 a0.678668 0.664567 -180 0 0 0.681885 -0.664567
								 L5.31 123.05 Z" class="st3"/>
				</g>
				<g id="shape6362-13" transform="translate(6.91534,-32.9669)">
					<title>path8</title>
					<path d="M30.71 122.1 L8.79 122.1 a0.398838 0.390551 0 0 1 -0.398838 -0.387402 L8.39 120.44 a0.398838 0.390551
								 0 0 1 0.398838 -0.390551 L30.71 120.05 a0.402055 0.393701 0 0 1 0.398838 0.390551 L31.11 121.7 a0.402055
								 0.393701 0 0 1 -0.395622 0.393701 L30.71 122.1 ZM4.32 119.49 L1.03 119.49 L1.03 122.71 L4.32 122.71
								 L4.32 119.49 ZM4.66 118.48 a0.69475 0.680315 0 0 1 0.685101 0.674016 L5.35 123.04 a0.688317 0.674016
								 0 0 1 -0.688317 0.670866 L0.69 123.71 a0.685101 0.670866 0 0 1 -0.685101 -0.670866 L0 119.14 a0.685101
								 0.670866 0 0 1 0.685101 -0.670866 L4.66 118.48 Z" class="st4"/>
				</g>
				<g id="shape6363-15" transform="translate(9.41129,-6.47262)">
					<title>path10</title>
					<path d="M33.03 108.48 a0.389189 0.381102 -180 0 0 -0.270181 -0.110236 a0.37954 0.371654 -180 0 0 -0.376323 0.374803
								 L32.38 113.42 L0 113.42 L0 119.01 L32.38 119.01 L32.38 123.37 a0.37954 0.371654 -180 0 0 0.643287
								 0.264567 L40.5 116.33 a0.376323 0.368504 -180 0 0 8.52651E-14 -0.522835 L33.03 108.48 Z"
							class="st5"/>
				</g>
			</g>
		</g>
	</g>
</svg>
